**harmony	**harte	**kern	**silbe	**kern	**silbe	**rhyme	**timestamp	**phrase
*M4/4	*M4/4	*ICvox	*	*ICvox	*	*	*	*
*	*	*VRlead	*	*VRbacking*VRharmonize	*	*	*	*
*	*	*Hstimme	*	*Nstimme	*	*	*	*
*G:	*G:	*G:	*	*G:	*	*	*	*
*	*	*M4/4	*	*M4/4	*	*	*	*
*	*	*clefF4	*	*clefF4	*	*	*	*
1r;	1r	r;	.	r;	.	.	0	.
=1	=1	=1	=1	=1	=1	=1	=1	=1
*>Letter>A	*>Letter>A	*>Letter>A	*>Letter>A	*>Letter>A	*>Letter>A	*>Letter>A	*>Letter>A	*>Letter>A
*>Label>Intro	*>Label>Intro	*>Label>Intro	*>Label>Intro	*>Label>Intro	*>Label>Intro	*>Label>Intro	*>Label>Intro	*>Label>Intro
1GM	G:maj	1r	.	1r	.	.	0.325	newline
=2	=2	=2	=2	=2	=2	=2	=2	=2
1Emm	E:min9	1r	.	1r	.	.	2.783	.
=3	=3	=3	=3	=3	=3	=3	=3	=3
1CMM	C:maj9	1r	.	1r	.	.	5.241	.
=4	=4	=4	=4	=4	=4	=4	=4	=4
1Bmm	B:min7	1r	.	1r	.	.	7.699	.
=5	=5	=5	=5	=5	=5	=5	=5	=5
1GM	G:maj	1r	.	4r	.	.	10.157	newline
.	.	.	.	4B	Ha	.	.	.
.	.	.	.	8c	ha	.	.	.
.	.	.	.	8d	ha	.	.	.
.	.	.	.	8r	.	.	.	.
.	.	.	.	8eq	_	.	.	.
.	.	.	.	[8f#	ha	.	.	.
=6	=6	=6	=6	=6	=6	=6	=6	=6
1Emm	E:min9	1r	.	4.f#]	_	.	12.623	.
.	.	.	.	8d	ha	.	.	.
.	.	.	.	2r	.	.	.	.
=7	=7	=7	=7	=7	=7	=7	=7	=7
1CMM	C:maj9	1r	.	1r	.	.	15.088	.
=8	=8	=8	=8	=8	=8	=8	=8	=8
1Bmm	B:min7	1r	.	1r	.	.	17.554	.
=9	=9	=9	=9	=9	=9	=9	=9	=9
1GM	G:maj	1r	.	4r	.	.	20.019	newline
.	.	.	.	4B	Ha	.	.	.
.	.	.	.	8c	ha	.	.	.
.	.	.	.	8d	ha	.	.	.
.	.	.	.	8r	.	.	.	.
.	.	.	.	8eq	_	.	.	.
.	.	.	.	[8f#	ha	.	.	.
=10	=10	=10	=10	=10	=10	=10	=10	=10
1Emm	E:min9	1r	.	4.f#]	_	.	22.485	.
.	.	.	.	8d	ha	.	.	.
.	.	.	.	2r	.	.	.	.
=11	=11	=11	=11	=11	=11	=11	=11	=11
1CMM	C:maj9	1r	.	1r	.	.	24.951	.
=12	=12	=12	=12	=12	=12	=12	=12	=12
1Bmm	B:min7	1r	.	1r	.	.	27.416	.
=13	=13	=13	=13	=13	=13	=13	=13	=13
1Am	A:min	1r	.	1r	.	.	29.882	newline
=14	=14	=14	=14	=14	=14	=14	=14	=14
1FM	F:maj6(9)	1r	.	1r	.	.	32.46	.
=15	=15	=15	=15	=15	=15	=15	=15	=15
1N	N	1r	.	1r	.	.	35.038	.
=16	=16	=16	=16	=16	=16	=16	=16	=16
*>Letter>B	*>Letter>B	*>Letter>B	*>Letter>B	*>Letter>B	*>Letter>B	*>Letter>B	*>Letter>B	*>Letter>B
*>Label>Verse	*>Label>Verse	*>Label>Verse	*>Label>Verse	*>Label>Verse	*>Label>Verse	*>Label>Verse	*>Label>Verse	*>Label>Verse
1GM	G:maj	4r	.	1r	.	.	37.616	newline
.	.	8B	So	.	.	.	.	.
.	.	8A#q	_	.	.	.	.	.
.	.	[8B	true	.	.	.	.	.
.	.	4B_	_	.	.	.	.	.
.	.	16B]	_	.	.	.	.	.
.	.	8.r	.	.	.	.	.	.
=17	=17	=17	=17	=17	=17	=17	=17	=17
1Bm	B:min	16B	fun-	1r	.	.	40.072	.
.	.	16B	-ny	.	.	.	.	.
.	.	8B	how	.	.	.	.	.
.	.	8c	it	.	.	.	.	.
.	.	8Aq	_	.	.	.	.	.
.	.	[8B	seems	.	.	A	.	.
.	.	4.B]	_	.	.	.	.	.
.	.	8r	.	.	.	.	.	.
=18	=18	=18	=18	=18	=18	=18	=18	=18
1CM	C:maj	8c	al-	1r	.	.	42.527	.
.	.	8B	-ways	.	.	.	.	.
.	.	8A	in	.	.	.	.	.
.	.	[8G	time	.	.	B	.	.
.	.	4G]	_	.	.	.	.	.
.	.	8r	.	.	.	.	.	.
.	.	8G	but	.	.	.	.	.
=19	=19	=19	=19	=19	=19	=19	=19	=19
.	.	8B-q	_	.	.	.	.	.
1E-M	E-:maj	4.c	ne-	1r	.	.	44.983	.
.	.	16B-	-ver	.	.	.	.	.
.	.	16A	in	.	.	.	.	.
.	.	4G	line	.	.	B	.	.
.	.	8A	for	.	.	.	.	.
.	.	16B	dreams	.	.	A	.	.
.	.	16A	_	.	.	.	.	.
=20	=20	=20	=20	=20	=20	=20	=20	=20
1GM	G:maj	4.B	_	1r	.	.	47.438	newline
.	.	8r	.	.	.	.	.	.
.	.	8B	Head	.	.	.	.	.
.	.	8d	o-	.	.	.	.	.
.	.	8e	-ver	.	.	.	.	.
.	.	[8f#	heels	.	.	.	.	.
=21	=21	=21	=21	=21	=21	=21	=21	=21
1Bm	B:min	4f#]	_	1r	.	.	49.917	.
.	.	8c#q	_	.	.	.	.	.
.	.	4d	when	.	.	.	.	.
.	.	8B	toe	.	.	C	.	.
.	.	[8d	to	.	.	.	.	.
.	.	4d]	_	.	.	.	.	.
=22	=22	=22	=22	=22	=22	=22	=22	=22
2..CM	C:maj	4G	toe	1r	.	C	.	.
.	.	8E	_	.	.	.	.	.
.	.	8r	.	.	.	.	.	.
.	.	8G	this	.	.	.	.	.
.	.	8A	is	.	.	.	.	.
.	.	8G	the	.	.	.	.	.
8Emm	E:min7	[8d	sound	.	.	.	.	->newline
=23	=23	=23	=23	=23	=23	=23	=23	=23
2..Emm	E:min7	2d_	_	1r	.	.	54.875	.
.	.	8d]	_	.	.	.	.	.
.	.	8e	of	.	.	.	.	.
.	.	8d	my	.	.	.	.	.
8CM	C:maj	[8G	soul	.	.	C	.	.
=24	=24	=24	=24	=24	=24	=24	=24	=24
2..CM	C:maj	4G]	_	1r	.	.	.	.
.	.	4r	.	.	.	.	.	.
.	.	8G	This	.	.	.	.	.
.	.	8A	is	.	.	.	.	.
.	.	8G	the	.	.	.	.	.
8GM	G:maj	16.d	sound	.	.	.	.	.
.	.	32c	_	.	.	.	.	.
=25	=25	=25	=25	=25	=25	=25	=25	=25
2GM	G:maj	1d	_	1r	.	.	.	.
2GM	G:maj/7	.	.	.	.	.	.	.
=26	=26	=26	=26	=26	=26	=26	=26	=26
1CM	C:maj	8r	.	1r	.	.	.	.
.	.	8e	I	.	.	.	.	.
.	.	8e	bought	.	.	.	.	.
.	.	8e	a	.	.	.	.	.
.	.	16e	ti-	.	.	.	.	.
.	.	16d	-cket	.	.	.	.	.
.	.	8c	to	.	.	.	.	.
.	.	8B	the	.	.	.	.	.
.	.	8Aq	_	.	.	.	.	.
.	.	[8B	world	.	.	.	.	.
=27	=27	=27	=27	=27	=27	=27	=27	=27
1GM	G:maj	16B]	_	1r	.	.	62.241	newline
.	.	16A	_	.	.	.	.	.
.	.	[8B	_	.	.	.	.	.
.	.	8.B]	_	.	.	.	.	.
.	.	16r	.	.	.	.	.	.
.	.	2r	.	.	.	.	.	.
=28	=28	=28	=28	=28	=28	=28	=28	=28
2CM	C:maj	8r	.	1r	.	.	.	.
.	.	8c	but	.	.	.	.	.
.	.	8c	now	.	.	.	.	.
.	.	8c	I've	.	.	.	.	.
2CM	C:maj/7	8c	come	.	.	.	.	.
.	.	8B	back	.	.	.	.	.
.	.	8A	a-	.	.	.	.	.
.	.	[8B	-gain	.	.	D	.	.
=29	=29	=29	=29	=29	=29	=29	=29	=29
1GM	G:maj	16B]	_	1r	.	.	.	.
.	.	16A	_	.	.	.	.	.
.	.	[8G	_	.	.	.	.	.
.	.	8G]	_	.	.	.	.	.
.	.	8r	.	.	.	.	.	.
.	.	2r	.	.	.	.	.	.
=30	=30	=30	=30	=30	=30	=30	=30	=30
2CM	C:maj	4r	.	1r	.	.	.	.
.	.	8e	Why	.	.	.	.	.
.	.	16e	do	.	.	.	.	.
.	.	16e	I	.	.	.	.	.
2CM	C:maj/7	8g	find	.	.	.	.	.
.	.	8g	it	.	.	.	.	.
.	.	8eq	_	.	.	.	.	.
.	.	8d	hard	.	.	.	.	.
.	.	8d	to	.	.	.	.	.
=31	=31	=31	=31	=31	=31	=31	=31	=31
1GM	G:maj	8e	write	1r	.	.	72.042	newline
.	.	16d	the	.	.	.	.	.
.	.	[16d	next	.	.	.	.	.
.	.	8d]	_	.	.	.	.	.
.	.	8B	line	.	.	.	.	.
.	.	4r	.	.	.	.	.	.
.	.	8r	.	.	.	.	.	.
.	.	8G	Oh,	.	.	.	.	.
=32	=32	=32	=32	=32	=32	=32	=32	=32
*M3/4	*M3/4	*M3/4	*	*M3/4	*	*	*M3/4	*M3/4
4.CM	C:maj	8c	I	2.r	.	.	.	.
.	.	8B	want	.	.	.	.	.
.	.	8G	the	.	.	.	.	.
4.CM	C:maj/7	8c	truth	.	.	.	.	.
.	.	8B	to	.	.	.	.	.
.	.	8G	be	.	.	.	.	.
=33	=33	=33	=33	=33	=33	=33	=33	=33
*M4/4	*M4/4	*M4/4	*	*M4/4	*	*	*M4/4	*M4/4
1FMM	F:maj9	2.G	said	1r	.	D	.	.
.	.	4r	.	.	.	.	.	.
=34	=34	=34	=34	=34	=34	=34	=34	=34
*>Letter>A	*>Letter>A	*>Letter>A	*>Letter>A	*>Letter>A	*>Letter>A	*>Letter>A	*>Letter>A	*>Letter>A
*>Label>Chorus	*>Label>Chorus	*>Label>Chorus	*>Label>Chorus	*>Label>Chorus	*>Label>Chorus	*>Label>Chorus	*>Label>Chorus	*>Label>Chorus
1GM	G:maj	1r	.	4r	.	.	81.305	newline
.	.	.	.	4B	Ha	.	.	.
.	.	.	.	8c	ha	.	.	.
.	.	.	.	8d	ha	.	.	.
.	.	.	.	8r	.	.	.	.
.	.	.	.	8eq	_	.	.	.
.	.	.	.	[8f#	ha	.	.	.
=35	=35	=35	=35	=35	=35	=35	=35	=35
1Emm	E:min9	2r	.	4.f#]	_	.	.	.
.	.	.	.	8d	ha	.	.	.
.	.	4r	.	2r	.	.	.	.
.	.	8r	.	.	.	.	.	.
.	.	8G	I	.	.	.	.	.
=36	=36	=36	=36	=36	=36	=36	=36	=36
1CMM	C:maj9	4.d	know	4.d	know	.	.	.
.	.	[8G	this	[8G	this	.	.	.
.	.	4G]	_	4G]	_	.	.	.
.	.	4r	.	4r	.	.	.	.
=37	=37	=37	=37	=37	=37	=37	=37	=37
1Bmm	B:min7	4.d	much	4.d	much	.	.	.
.	.	8G	is	8G	is	.	.	.
.	.	4r	.	4r	.	.	.	.
.	.	8A	true!	8A	true!	.	.	.
.	.	8G	_	8G	_	.	.	.
=38	=38	=38	=38	=38	=38	=38	=38	=38
1GM	G:maj	1r	.	4r	.	.	91.119	newline
.	.	.	.	4B	Ha	.	.	.
.	.	.	.	8c	ha	.	.	.
.	.	.	.	8d	ha	.	.	.
.	.	.	.	8r	.	.	.	.
.	.	.	.	8eq	_	.	.	.
.	.	.	.	8f#	ha	.	.	.
=39	=39	=39	=39	=39	=39	=39	=39	=39
1Emm	E:min9	2r	.	4.f#	_	.	.	.
.	.	.	.	8d	ha	.	.	.
.	.	4r	.	2r	.	.	.	.
.	.	8r	.	.	.	.	.	.
.	.	8G	_	.	.	.	.	.
=40	=40	=40	=40	=40	=40	=40	=40	=40
1CMM	C:maj9	4.d	know	4.d	know	.	.	.
.	.	[8G	this	[8G	this	.	.	.
.	.	4G]	_	4G]	_	.	.	.
.	.	4r	.	4r	.	.	.	.
=41	=41	=41	=41	=41	=41	=41	=41	=41
1Bmm	B:min7	4.d	much	4.d	much	.	.	.
.	.	[8G	is	[8G	is	.	.	.
.	.	8G]	_	8G]	_	.	.	.
.	.	4r	.	4r	.	.	.	.
.	.	8r	.	8r	.	.	.	.
=42	=42	=42	=42	=42	=42	=42	=42	=42
1Am	A:min	8e	true	4e	true!	.	101.025	newline
.	.	8d#q	_	.	.	.	.	.
.	.	16.e	_	.	.	.	.	.
.	.	32~dd	_	.	.	.	.	.
.	.	2r	.	2r	.	.	.	.
.	.	4r	.	4r	.	.	.	.
=43	=43	=43	=43	=43	=43	=43	=43	=43
1FM	F:maj6(9)	1r	.	1r	.	.	.	.
=44	=44	=44	=44	=44	=44	=44	=44	=44
1N	N	1r	.	1r	.	.	.	.
=45	=45	=45	=45	=45	=45	=45	=45	=45
*>Letter>B	*>Letter>B	*>Letter>B	*>Letter>B	*>Letter>B	*>Letter>B	*>Letter>B	*>Letter>B	*>Letter>B
*>Label>Verse	*>Label>Verse	*>Label>Verse	*>Label>Verse	*>Label>Verse	*>Label>Verse	*>Label>Verse	*>Label>Verse	*>Label>Verse
1GM	G:maj	4r	.	1r	.	.	108.436	newline
.	.	8B	With	.	.	.	.	.
.	.	8B	a	.	.	.	.	.
.	.	8c	thrill	.	.	E	.	.
.	.	8B	in	.	.	.	.	.
.	.	8B	my	.	.	.	.	.
.	.	16.d	head	.	.	.	.	.
.	.	32c	_	.	.	.	.	.
=46	=46	=46	=46	=46	=46	=46	=46	=46
1Bm	B:min	16B	_	1r	.	.	.	.
.	.	8r	.	.	.	.	.	.
.	.	16r	.	.	.	.	.	.
.	.	8B	and	.	.	.	.	.
.	.	8B	a	.	.	.	.	.
.	.	8d	pill	.	.	E	.	.
.	.	4e	on	.	.	.	.	.
.	.	[8d	my	.	.	.	.	.
=47	=47	=47	=47	=47	=47	=47	=47	=47
1CM	C:maj	8d]	_	1r	.	.	.	.
.	.	4G	tongue	.	.	F	.	.
.	.	8r	.	.	.	.	.	.
.	.	8G	dis-	.	.	.	.	.
.	.	8A	-solve	.	.	.	.	.
.	.	8G	the	.	.	.	.	.
.	.	16.d	nerves	.	.	.	.	.
.	.	32c	_	.	.	.	.	.
=48	=48	=48	=48	=48	=48	=48	=48	=48
1E-M	E-:maj	4.d	_	1r	.	.	.	.
.	.	16c	that	.	.	.	.	.
.	.	16c	have	.	.	.	.	.
.	.	4G	just	.	.	.	.	.
.	.	8A	be-	.	.	.	.	.
.	.	16B	-gun	.	.	F	.	.
.	.	16A	_	.	.	.	.	.
=49	=49	=49	=49	=49	=49	=49	=49	=49
1GM	G:maj	4B	_	1r	.	.	118.211	newline
.	.	4r	.	.	.	.	.	.
.	.	8B	List-	.	.	.	.	.
.	.	8c	-'ning	.	.	.	.	.
.	.	8d	to	.	.	.	.	.
.	.	[8f#	Mar	.	.	.	.	.
=50	=50	=50	=50	=50	=50	=50	=50	=50
1Bm	B:min	8f#]	_	2r	.	.	.	.
.	.	8d	_	.	.	.	.	.
.	.	4d	vin	.	.	.	.	.
.	.	2r	.	8B	All	.	.	.
.	.	.	.	[8a	night	.	.	.
.	.	.	.	16a]	_	.	.	.
.	.	.	.	16r	.	.	.	.
.	.	.	.	16gQ	_	.	.	.
.	.	.	.	[8a	long	.	.	.
=51	=51	=51	=51	=51	=51	=51	=51	=51
2..CM	C:maj	2r	.	8a]	_	.	.	.
.	.	.	.	4g	_	.	.	.
.	.	.	.	2r	.	.	.	.
.	.	8G	This	.	.	.	.	.
.	.	8A	is	.	.	.	.	.
.	.	8G	the	.	.	.	.	.
8Emm	E:min7	[8d	sound	8r	.	.	.	->newline
=52	=52	=52	=52	=52	=52	=52	=52	=52
2..Emm	E:min7	2d_	_	1r	.	.	125.71	.
.	.	8d]	_	.	.	.	.	.
.	.	8e	of	.	.	.	.	.
.	.	8d	my	.	.	.	.	.
8CM	C:maj	[8G	soul	.	.	.	.	.
=53	=53	=53	=53	=53	=53	=53	=53	=53
2..CM	C:maj	4G]	_	2r	.	.	.	.
.	.	4r	.	.	.	.	.	.
.	.	8G	this	8G	_	.	.	.
.	.	8A	is	8A	_	.	.	.
.	.	8G	the	8G	_	.	.	.
8GM	G:maj	16.d	sound	16.d	_	.	.	.
.	.	32c	_	32c	_	.	.	.
=54	=54	=54	=54	=54	=54	=54	=54	=54
2GM	G:maj	1d	_	1d	_	.	.	.
2GM	G:maj/7	.	.	.	.	.	.	.
=55	=55	=55	=55	=55	=55	=55	=55	=55
1CM	C:maj	4r	.	1r	.	.	.	.
.	.	8e	Al-	.	.	.	.	.
.	.	8e	-ways	.	.	.	.	.
.	.	16e	slip-	.	.	.	.	.
.	.	16d	-ping	.	.	.	.	.
.	.	8c	from	.	.	.	.	.
.	.	8B	my	.	.	.	.	.
.	.	8Aq	_	.	.	.	.	.
.	.	[8B	hands	.	.	.	.	.
=56	=56	=56	=56	=56	=56	=56	=56	=56
1GM	G:maj	16B]	_	1r	.	.	133.019	newline
.	.	16A	_	.	.	.	.	.
.	.	[8B	_	.	.	.	.	.
.	.	8.B]	_	.	.	.	.	.
.	.	2r	.	.	.	.	.	.
.	.	16r	.	.	.	.	.	.
=57	=57	=57	=57	=57	=57	=57	=57	=57
2CM	C:maj	4r	.	1r	.	.	.	.
.	.	8c	Sand's	.	.	.	.	.
.	.	8c	a	.	.	.	.	.
2CM	C:maj/7	8c	time	.	.	.	.	.
.	.	8B	of	.	.	.	.	.
.	.	8A	its	.	.	.	.	.
.	.	[8B	own	.	.	C	.	.
=58	=58	=58	=58	=58	=58	=58	=58	=58
1GM	G:maj	16B]	_	1r	.	.	.	.
.	.	16A	_	.	.	.	.	.
.	.	[8G	_	.	.	.	.	.
.	.	8G]	_	.	.	.	.	.
.	.	2r	.	.	.	.	.	.
.	.	8r	.	.	.	.	.	.
=59	=59	=59	=59	=59	=59	=59	=59	=59
2CM	C:maj	4r	.	1r	.	.	.	.
.	.	8e	Take	.	.	.	.	.
.	.	8e	your	.	.	.	.	.
2CM	C:maj/7	8g	sea-	.	.	.	.	.
.	.	8g	-side	.	.	.	.	.
.	.	8eq	_	.	.	.	.	.
.	.	8d	arms	.	.	.	.	.
.	.	8d	and	.	.	.	.	.
=60	=60	=60	=60	=60	=60	=60	=60	=60
1GM	G:maj	8e	write	1r	.	.	142.901	newline
.	.	16d	the	.	.	.	.	.
.	.	[16d	next	.	.	.	.	.
.	.	8d]	_	.	.	.	.	.
.	.	8Aq	_	.	.	.	.	.
.	.	8B	line	.	.	.	.	.
.	.	8A	_	.	.	.	.	.
.	.	4r	.	.	.	.	.	.
.	.	8G	Oh,	.	.	.	.	.
=61	=61	=61	=61	=61	=61	=61	=61	=61
*M3/4	*M3/4	*M3/4	*	*M3/4	*	*	*M3/4	*M3/4
4.CM	C:maj	8c	I	2.r	.	.	.	.
.	.	8B	want	.	.	.	.	.
.	.	8G	the	.	.	.	.	.
4.CM	C:maj/7	8c	truth	.	.	.	.	.
.	.	8B	to	.	.	.	.	.
.	.	8G	be	.	.	.	.	.
=62	=62	=62	=62	=62	=62	=62	=62	=62
*M4/4	*M4/4	*M4/4	*	*M4/4	*	*	*M4/4	*M4/4
1FMM	F:maj9	2.G	known	1r	.	C	.	.
.	.	4r	.	.	.	.	.	.
=63	=63	=63	=63	=63	=63	=63	=63	=63
*>Letter>A	*>Letter>A	*>Letter>A	*>Letter>A	*>Letter>A	*>Letter>A	*>Letter>A	*>Letter>A	*>Letter>A
*>Label>Chorus	*>Label>Chorus	*>Label>Chorus	*>Label>Chorus	*>Label>Chorus	*>Label>Chorus	*>Label>Chorus	*>Label>Chorus	*>Label>Chorus
1GM	G:maj	1r	.	4r	.	.	152.199	newline
.	.	.	.	4B	Ha	.	.	.
.	.	.	.	8c	ha	.	.	.
.	.	.	.	8d	ha	.	.	.
.	.	.	.	8r	.	.	.	.
.	.	.	.	8eq	_	.	.	.
.	.	.	.	[8f#	ha	.	.	.
=64	=64	=64	=64	=64	=64	=64	=64	=64
1Emm	E:min9	2r	.	4.f#]	_	.	.	.
.	.	.	.	8d	ha	.	.	.
.	.	4r	.	2r	.	.	.	.
.	.	8r	.	.	.	.	.	.
.	.	8G	I	.	.	.	.	.
=65	=65	=65	=65	=65	=65	=65	=65	=65
1CMM	C:maj9	4.d	know	4.d	know	.	.	.
.	.	[8G	this	[8G	this	.	.	.
.	.	4G]	_	4G]	_	.	.	.
.	.	4r	.	4r	.	.	.	.
=66	=66	=66	=66	=66	=66	=66	=66	=66
1Bmm	B:min7	4.d	much	4.d	much	.	.	.
.	.	8G	is	8G	is	.	.	.
.	.	4r	.	4r	.	.	.	.
.	.	8A	true!	8A	true!	.	.	.
.	.	8G	_	8G	_	.	.	.
=67	=67	=67	=67	=67	=67	=67	=67	=67
1GM	G:maj	1r	.	4r	.	.	161.991	newline
.	.	.	.	4B	Ha	.	.	.
.	.	.	.	8c	ha	.	.	.
.	.	.	.	8d	ha	.	.	.
.	.	.	.	8r	.	.	.	.
.	.	.	.	8eq	_	.	.	.
.	.	.	.	8f#	ha	.	.	.
=68	=68	=68	=68	=68	=68	=68	=68	=68
1Emm	E:min9	2r	.	4.f#	_	.	.	.
.	.	.	.	8d	ha	.	.	.
.	.	4r	.	2r	.	.	.	.
.	.	8r	.	.	.	.	.	.
.	.	8G	_	.	.	.	.	.
=69	=69	=69	=69	=69	=69	=69	=69	=69
1CMM	C:maj9	4.d	know	4.d	know	.	.	.
.	.	[8G	this	[8G	this	.	.	.
.	.	4G]	_	4G]	_	.	.	.
.	.	4r	.	4r	.	.	.	.
=70	=70	=70	=70	=70	=70	=70	=70	=70
1Bmm	B:min7	4.d	much	4.d	much	.	.	.
.	.	[8G	is	[8G	is	.	.	.
.	.	8G]	_	8G]	_	.	.	.
.	.	4r	.	4r	.	.	.	.
.	.	8r	.	8r	.	.	.	.
=71	=71	=71	=71	=71	=71	=71	=71	=71
1Am	A:min	8e	true	4e	true!	.	171.802	newline
.	.	8d#q	_	.	.	.	.	.
.	.	16.e	_	.	.	.	.	.
.	.	32~dd	_	.	.	.	.	.
.	.	2r	.	2r	.	.	.	.
.	.	4r	.	4r	.	.	.	.
=72	=72	=72	=72	=72	=72	=72	=72	=72
1FM	F:maj6(9)	1r	.	1r	.	.	.	.
=73	=73	=73	=73	=73	=73	=73	=73	=73
2..FM	F:maj6(9)	1r	.	1r	.	.	.	.
8E-M	E-:maj	.	.	.	.	.	.	.
=74	=74	=74	=74	=74	=74	=74	=74	=74
*>Letter>C	*>Letter>C	*>Letter>C	*>Letter>C	*>Letter>C	*>Letter>C	*>Letter>C	*>Letter>C	*>Letter>C
*>Label>Solo	*>Label>Solo	*>Label>Solo	*>Label>Solo	*>Label>Solo	*>Label>Solo	*>Label>Solo	*>Label>Solo	*>Label>Solo
*E-:	*E-:	*E-:	*	*E-:	*	*	*E-:	*E-:
1E-M	E-:maj	1r	.	1r	.	.	179.298	newline
=75	=75	=75	=75	=75	=75	=75	=75	=75
1A-M	A-:maj	1r	.	1r	.	.	.	.
=76	=76	=76	=76	=76	=76	=76	=76	=76
1E-M	E-:maj	1r	.	1r	.	.	.	.
=77	=77	=77	=77	=77	=77	=77	=77	=77
1A-M	A-:maj	1r	.	1r	.	.	.	.
=78	=78	=78	=78	=78	=78	=78	=78	=78
1E-M	E-:maj	1r	.	1r	.	.	189.132	newline
=79	=79	=79	=79	=79	=79	=79	=79	=79
1A-M	A-:maj	1r	.	1r	.	.	.	.
=80	=80	=80	=80	=80	=80	=80	=80	=80
1E-M	E-:maj	1r	.	1r	.	.	.	.
=81	=81	=81	=81	=81	=81	=81	=81	=81
1A-M	A-:maj	1r	.	1r	.	.	.	.
=82	=82	=82	=82	=82	=82	=82	=82	=82
1E-M	E-:maj	1r	.	1r	.	.	198.961	newline
=83	=83	=83	=83	=83	=83	=83	=83	=83
1A-M	A-:maj	1r	.	1r	.	.	.	.
=84	=84	=84	=84	=84	=84	=84	=84	=84
1E-M	E-:maj	1r	.	1r	.	.	.	.
=85	=85	=85	=85	=85	=85	=85	=85	=85
1A-M	A-:maj	1r	.	1r	.	.	.	.
=86	=86	=86	=86	=86	=86	=86	=86	=86
1E-M	E-:maj	1r	.	1r	.	.	208.84	newline
=87	=87	=87	=87	=87	=87	=87	=87	=87
1A-M	A-:maj	1r	.	1r	.	.	.	.
=88	=88	=88	=88	=88	=88	=88	=88	=88
*C:	*C:	*C:	*	*C:	*	*	*C:	*C:
1GM	G:maj	1r	.	1r	.	.	.	.
=89	=89	=89	=89	=89	=89	=89	=89	=89
1GM	G:maj	1r	.	1r	.	.	.	.
=90	=90	=90	=90	=90	=90	=90	=90	=90
*>Letter>B	*>Letter>B	*>Letter>B	*>Letter>B	*>Letter>B	*>Letter>B	*>Letter>B	*>Letter>B	*>Letter>B
*>Label>Verse	*>Label>Verse	*>Label>Verse	*>Label>Verse	*>Label>Verse	*>Label>Verse	*>Label>Verse	*>Label>Verse	*>Label>Verse
2CM	C:maj	8r	.	1r	.	.	218.678	newline
.	.	8e	I	.	.	.	.	.
.	.	8e	bought	.	.	.	.	.
.	.	8e	a	.	.	.	.	.
2CM	C:maj/7	16e	ti-	.	.	.	.	.
.	.	16e	-cket	.	.	.	.	.
.	.	8f#	to	.	.	.	.	.
.	.	8e	the	.	.	.	.	.
.	.	8g	wo-	.	.	.	.	.
=91	=91	=91	=91	=91	=91	=91	=91	=91
1GM	G:maj	8r	.	1r	.	.	.	.
.	.	8e	-ho-	.	.	.	.	.
.	.	8r	.	.	.	.	.	.
.	.	[8d	-horld	.	.	.	.	.
.	.	8d]	_	.	.	.	.	.
.	.	16B	_	.	.	.	.	.
.	.	16~ee-	_	.	.	.	.	.
.	.	4r	.	.	.	.	.	.
=92	=92	=92	=92	=92	=92	=92	=92	=92
1CM	C:maj	8r	.	1r	.	.	.	.
.	.	8c	But	.	.	.	.	.
.	.	8c	now	.	.	.	.	.
.	.	8c	I've	.	.	.	.	.
.	.	8c	come	.	.	.	.	.
.	.	8B	back	.	.	.	.	.
.	.	8A	a-	.	.	.	.	.
.	.	16.B	-gain	.	.	D	.	.
.	.	32A	_	.	.	.	.	.
=93	=93	=93	=93	=93	=93	=93	=93	=93
1GM	G:maj	8B	_	1r	.	.	.	.
.	.	2r	.	.	.	.	.	.
.	.	4r	.	.	.	.	.	.
.	.	8r	.	.	.	.	.	.
=94	=94	=94	=94	=94	=94	=94	=94	=94
2CM	C:maj	4r	.	1r	.	.	228.478	newline
.	.	8e	Why	.	.	.	.	.
.	.	16e	do	.	.	.	.	.
.	.	16e	I	.	.	.	.	.
2CM	C:maj/7	8g	find	.	.	.	.	.
.	.	8g	it	.	.	.	.	.
.	.	8eq	_	.	.	.	.	.
.	.	8d	hard	.	.	.	.	.
.	.	8d	to	.	.	.	.	.
=95	=95	=95	=95	=95	=95	=95	=95	=95
1GM	G:maj	8e	write	1r	.	.	.	.
.	.	16d	the	.	.	.	.	.
.	.	[16d	next	.	.	.	.	.
.	.	8d]	_	.	.	.	.	.
.	.	8Aq	_	.	.	.	.	.
.	.	8B	line	.	.	.	.	.
.	.	4A	_	.	.	.	.	.
.	.	8r	.	.	.	.	.	.
.	.	8G	Oh,	.	.	.	.	.
=96	=96	=96	=96	=96	=96	=96	=96	=96
*M3/4	*M3/4	*M3/4	*	*M3/4	*	*	*M3/4	*M3/4
4.CM	C:maj	8c	I	2.r	.	.	.	.
.	.	8B	want	.	.	.	.	.
.	.	8G	the	.	.	.	.	.
4.GM	G:maj/3	8c	truth	.	.	.	.	.
.	.	8B	to	.	.	.	.	.
.	.	8G	be	.	.	.	.	.
=97	=97	=97	=97	=97	=97	=97	=97	=97
*M4/4	*M4/4	*M4/4	*	*M4/4	*	*	*M4/4	*M4/4
1FMM	F:maj9	[2.g	said	1r	.	D	.	.
.	.	16g]	_	.	.	.	.	.
.	.	16~ee	_	.	.	.	.	.
.	.	8r	.	.	.	.	.	.
=98	=98	=98	=98	=98	=98	=98	=98	=98
1FMM	F:maj9	1r	.	1r	.	.	.	.
=99	=99	=99	=99	=99	=99	=99	=99	=99
*>Letter>A	*>Letter>A	*>Letter>A	*>Letter>A	*>Letter>A	*>Letter>A	*>Letter>A	*>Letter>A	*>Letter>A
*>Label>Chorus	*>Label>Chorus	*>Label>Chorus	*>Label>Chorus	*>Label>Chorus	*>Label>Chorus	*>Label>Chorus	*>Label>Chorus	*>Label>Chorus
1GM	G:maj	1r	.	4r	.	.	240.187	newline
.	.	.	.	4B	Ha	.	.	.
.	.	.	.	8c	ha	.	.	.
.	.	.	.	8d	ha	.	.	.
.	.	.	.	8r	.	.	.	.
.	.	.	.	8eq	_	.	.	.
.	.	.	.	[8f#	ha	.	.	.
=100	=100	=100	=100	=100	=100	=100	=100	=100
1Emm	E:min9	2r	.	4.f#]	_	.	.	.
.	.	.	.	8d	ha	.	.	.
.	.	4r	.	2r	.	.	.	.
.	.	8r	.	.	.	.	.	.
.	.	8G	I	.	.	.	.	.
=101	=101	=101	=101	=101	=101	=101	=101	=101
1CMM	C:maj9	4.d	know	4.d	know	.	.	.
.	.	[8G	this	[8G	this	.	.	.
.	.	4G]	_	4G]	_	.	.	.
.	.	4r	.	4r	.	.	.	.
=102	=102	=102	=102	=102	=102	=102	=102	=102
1Bmm	B:min7	4.d	much	4.d	much	.	.	.
.	.	8G	is	8G	is	.	.	.
.	.	4r	.	4r	.	.	.	.
.	.	8A	true!	8A	true!	.	.	.
.	.	8G	_	8G	_	.	.	.
=103	=103	=103	=103	=103	=103	=103	=103	=103
1GM	G:maj	1r	.	4r	.	.	250.037	newline
.	.	.	.	4B	Ha	.	.	.
.	.	.	.	8c	ha	.	.	.
.	.	.	.	8d	ha	.	.	.
.	.	.	.	8r	.	.	.	.
.	.	.	.	8eq	_	.	.	.
.	.	.	.	8f#	ha	.	.	.
=104	=104	=104	=104	=104	=104	=104	=104	=104
1Emm	E:min9	2r	.	4.f#	_	.	.	.
.	.	.	.	8d	ha	.	.	.
.	.	4r	.	2r	.	.	.	.
.	.	8r	.	.	.	.	.	.
.	.	8G	I	.	.	.	.	.
=105	=105	=105	=105	=105	=105	=105	=105	=105
1CMM	C:maj9	4.d	know	4.d	know	.	.	.
.	.	[8G	this	[8G	this	.	.	.
.	.	4G]	_	4G]	_	.	.	.
.	.	4r	.	4r	.	.	.	.
=106	=106	=106	=106	=106	=106	=106	=106	=106
1Bmm	B:min7	4.d	much	4.d	much	.	.	.
.	.	[8G	is	[8G	is	.	.	.
.	.	8G]	_	8G]	_	.	.	.
.	.	4r	.	4r	.	.	.	.
.	.	8r	.	8r	.	.	.	.
=107	=107	=107	=107	=107	=107	=107	=107	=107
*>Letter>D	*>Letter>D	*>Letter>D	*>Letter>D	*>Letter>D	*>Letter>D	*>Letter>D	*>Letter>D	*>Letter>D
*>Label>Coda	*>Label>Coda	*>Label>Coda	*>Label>Coda	*>Label>Coda	*>Label>Coda	*>Label>Coda	*>Label>Coda	*>Label>Coda
1Amm	A:min7	8e	true	4e	true	.	259.932	newline
.	.	8d#q	_	.	.	.	.	.
.	.	16.e	_	.	.	.	.	.
.	.	32~dd	_	.	.	.	.	.
.	.	2r	.	2r	.	.	.	.
.	.	4r	.	4r	.	.	.	.
=108	=108	=108	=108	=108	=108	=108	=108	=108
1Emm	E:min7	1r	.	1r	.	.	.	.
=109	=109	=109	=109	=109	=109	=109	=109	=109
1Amm	A:min7	1r	.	1r	.	.	.	.
=110	=110	=110	=110	=110	=110	=110	=110	=110
1Emm	E:min9	2r	.	1r	.	.	.	.
.	.	8r	.	.	.	.	.	.
.	.	16f#	This	.	.	.	.	.
.	.	[16g	_	.	.	.	.	.
.	.	4g]	_	.	.	.	.	.
=111	=111	=111	=111	=111	=111	=111	=111	=111
1Amm	A:min7	12g	much	1r	.	.	269.772	newline
.	.	6e	is	.	.	.	.	.
.	.	8e	true	.	.	.	.	.
.	.	8d#q	_	.	.	.	.	.
.	.	16.e	_	.	.	.	.	.
.	.	32~b	_	.	.	.	.	.
.	.	2r	.	.	.	.	.	.
=112	=112	=112	=112	=112	=112	=112	=112	=112
1FM	F:maj6(9)	1r	.	1r	.	.	.	.
=113	=113	=113	=113	=113	=113	=113	=113	=113
1FM	F:maj6(9)	1r	.	1r	.	.	.	.
=114	=114	=114	=114	=114	=114	=114	=114	=114
*>Letter>A2	*>Letter>A2	*>Letter>A2	*>Letter>A2	*>Letter>A2	*>Letter>A2	*>Letter>A2	*>Letter>A2	*>Letter>A2
*>Label>Outro	*>Label>Outro	*>Label>Outro	*>Label>Outro	*>Label>Outro	*>Label>Outro	*>Label>Outro	*>Label>Outro	*>Label>Outro
1GM	G:maj	1r	.	8r	.	.	277.128	newline
.	.	.	.	8D 8d	This	.	.	.
.	.	.	.	8D 8d	much	.	.	.
.	.	.	.	16E 16e	is	.	.	.
.	.	.	.	16D 16d	a'	.	.	.
.	.	.	.	8G 8g	true	.	.	.
.	.	.	.	16A# 16a#	_	.	.	.
.	.	.	.	16B 16b	_	.	.	.
.	.	.	.	4r	.	.	.	.
=115	=115	=115	=115	=115	=115	=115	=115	=115
1Emm	E:min9	1r	.	8r	.	.	.	.
.	.	.	.	8D 8d	This	.	.	.
.	.	.	.	8D 8d	much	.	.	.
.	.	.	.	16E 16e	is	.	.	.
.	.	.	.	16D 16d	a'	.	.	.
.	.	.	.	8G 8g	true	.	.	.
.	.	.	.	16A# 16a#	_	.	.	.
.	.	.	.	16B 16b	_	.	.	.
.	.	.	.	8r	.	.	.	.
.	.	.	.	8G 8g	hoo!	.	.	.
=116	=116	=116	=116	=116	=116	=116	=116	=116
1CMM	C:maj9	2r	.	1r	.	.	.	.
.	.	4r	.	.	.	.	.	.
.	.	8r	.	.	.	.	.	.
.	.	8g	I	.	.	.	.	.
=117	=117	=117	=117	=117	=117	=117	=117	=117
1Bmm	B:min7	8g	know,	1r	.	.	.	.
.	.	8f#	I	.	.	.	.	.
.	.	8f#	know,	.	.	.	.	.
.	.	8e	I	.	.	.	.	.
.	.	8e	know	.	.	.	.	.
.	.	8d	this	.	.	.	.	.
.	.	8d	much	.	.	.	.	.
.	.	8e	is	.	.	.	.	.
=118	=118	=118	=118	=118	=118	=118	=118	=118
1GM	G:maj	8.d	true	8r	.	.	287.025	newline
.	.	.	.	8D 8d	This	.	.	.
.	.	16c	_	.	.	.	.	.
.	.	8B	_	8D 8d	much	.	.	.
.	.	2r	.	16E 16e	is	.	.	.
.	.	.	.	16D 16d	a'	.	.	.
.	.	.	.	8G 8g	true	.	.	.
.	.	.	.	16A# 16a#	_	.	.	.
.	.	.	.	16B 16b	_	.	.	.
.	.	.	.	4r	.	.	.	.
.	.	8r	.	.	.	.	.	.
=119	=119	=119	=119	=119	=119	=119	=119	=119
1Emm	E:min9	1r	.	8r	.	.	.	.
.	.	.	.	8D 8d	This	.	.	.
.	.	.	.	8D 8d	much	.	.	.
.	.	.	.	16E 16e	is	.	.	.
.	.	.	.	16D 16d	a'	.	.	.
.	.	.	.	8G 8g	true	.	.	.
.	.	.	.	16A# 16a#	_	.	.	.
.	.	.	.	16B 16b	_	.	.	.
.	.	.	.	8r	.	.	.	.
.	.	.	.	8G 8g	hoo!	.	.	.
=120	=120	=120	=120	=120	=120	=120	=120	=120
1CMM	C:maj9	1r	.	1r	.	.	.	.
=121	=121	=121	=121	=121	=121	=121	=121	=121
1Bmm	B:min7	1r	.	1r	.	.	.	.
=122	=122	=122	=122	=122	=122	=122	=122	=122
1GM	G:maj	2r	.	8r	.	.	296.867	newline
.	.	.	.	8D 8d	This	.	.	.
.	.	.	.	8D 8d	much	.	.	.
.	.	.	.	16E 16e	is	.	.	.
.	.	.	.	16D 16d	a'	.	.	.
.	.	4r	.	8G 8g	true	.	.	.
.	.	.	.	16A# 16a#	_	.	.	.
.	.	.	.	16B 16b	_	.	.	.
.	.	8r	.	4r	.	.	.	.
.	.	16e	Ha	.	.	.	.	.
.	.	[16f#	_	.	.	.	.	.
=123	=123	=123	=123	=123	=123	=123	=123	=123
1Emm	E:min9	2f#]	_	8r	.	.	.	.
.	.	.	.	8D 8d	This	.	.	.
.	.	.	.	8D 8d	much	.	.	.
.	.	.	.	16E 16e	is	.	.	.
.	.	.	.	16D 16d	a'	.	.	.
.	.	4r	.	8G 8g	true	.	.	.
.	.	.	.	16A# 16a#	_	.	.	.
.	.	.	.	16B 16b	_	.	.	.
.	.	8r	.	8r	.	.	.	.
.	.	8g	I	8G 8g	hoo!	.	.	.
=124	=124	=124	=124	=124	=124	=124	=124	=124
1CMM	C:maj9	4.g	know	4.d	_	.	.	.
.	.	16d	this	[8G	_	.	.	.
.	.	[16e	_	.	.	.	.	.
.	.	8e]	_	4G]	_	.	.	.
.	.	4r	.	.	.	.	.	.
.	.	.	.	4r	.	.	.	.
.	.	8r	.	.	.	.	.	.
=125	=125	=125	=125	=125	=125	=125	=125	=125
.	.	8f#q	_	.	.	.	.	.
1Bmm	B:min7	4.g	much	4.d	_	.	.	.
.	.	8d	is	8G	_	.	.	.
.	.	4r	.	4r	.	.	.	.
.	.	8gq	_	.	.	.	.	.
.	.	8a	true	8A	_	.	.	.
.	.	8g	_	8G	_	.	.	.
=126	=126	=126	=126	=126	=126	=126	=126	=126
*>Label>>Fadeout	*>Label>>Fadeout	*>Label>>Fadeout	*>Label>>Fadeout	*>Label>>Fadeout	*>Label>>Fadeout	*>Label>>Fadeout	*>Label>>Fadeout	*>Label>>Fadeout
1GM	G:maj	2r	.	8r	.	.	306.669	newline
.	.	.	.	8D 8d	This	.	.	.
.	.	.	.	8D 8d	much	.	.	.
.	.	.	.	16E 16e	is	.	.	.
.	.	.	.	16D 16d	a'	.	.	.
.	.	4r	.	8G 8g	true	.	.	.
.	.	.	.	16A# 16a#	_	.	.	.
.	.	.	.	16B 16b	_	.	.	.
.	.	8r	.	4r	.	.	.	.
.	.	16e	Ha	.	.	.	.	.
.	.	[16f#	_	.	.	.	.	.
=127	=127	=127	=127	=127	=127	=127	=127	=127
1Emm	E:min9	2f#]	_	8r	.	.	.	.
.	.	.	.	8D 8d	This	.	.	.
.	.	.	.	8D 8d	much	.	.	.
.	.	.	.	16E 16e	is	.	.	.
.	.	.	.	16D 16d	a'	.	.	.
.	.	2r	.	8G 8g	true	.	.	.
.	.	.	.	16A# 16a#	_	.	.	.
.	.	.	.	16B 16b	_	.	.	.
.	.	.	.	8r	.	.	.	.
.	.	.	.	8G 8g	hoo!	.	.	.
=128	=128	=128	=128	=128	=128	=128	=128	=128
1CMM	C:maj9	1r	.	4.d	Know	.	.	.
.	.	.	.	[8G	this	.	.	.
.	.	.	.	4G]	_	.	.	.
.	.	.	.	4r	.	.	.	.
=129	=129	=129	=129	=129	=129	=129	=129	=129
1Bmm	B:min7	1r	.	4.d	Much	.	.	.
.	.	.	.	8G	is	.	.	.
.	.	.	.	4r	.	.	.	.
.	.	.	.	8A	true	.	.	.
.	.	.	.	8G	_	.	.	.
=130	=130	=130	=130	=130	=130	=130	=130	=130
1GM	G:maj	1r	.	8r	.	.	316.521	newline
.	.	.	.	8D 8d	This	.	.	.
.	.	.	.	8D 8d	much	.	.	.
.	.	.	.	16E 16e	is	.	.	.
.	.	.	.	16D 16d	a'	.	.	.
.	.	.	.	8G 8g	true	.	.	.
.	.	.	.	16A# 16a#	_	.	.	.
.	.	.	.	16B 16b	_	.	.	.
.	.	.	.	4r	.	.	.	.
=131	=131	=131	=131	=131	=131	=131	=131	=131
1Emm	E:min9	1r	.	8r	.	.	.	.
.	.	.	.	8D 8d	This	.	.	.
.	.	.	.	8D 8d	much	.	.	.
.	.	.	.	16E 16e	is	.	.	.
.	.	.	.	16D 16d	a'	.	.	.
.	.	.	.	8G 8g	true	.	.	.
.	.	.	.	16A# 16a#	_	.	.	.
.	.	.	.	16B 16b	_	.	.	.
.	.	.	.	8r	.	.	.	.
.	.	.	.	8G 8g	hoo!	.	.	.
=132	=132	=132	=132	=132	=132	=132	=132	=132
1CMM	C:maj9	2r	.	4.d	know	.	.	.
.	.	.	.	[8G	this	.	.	.
.	.	4r	.	4G]	_	.	.	.
.	.	8r	.	4r	.	.	.	.
.	.	8g	I	.	.	.	.	.
=133	=133	=133	=133	=133	=133	=133	=133	=133
1Bmm	B:min7	8g	know,	4.d	much	.	.	.
.	.	8f#	I	.	.	.	.	.
.	.	8f#	know,	.	.	.	.	.
.	.	8e	I	8G	is	.	.	.
.	.	8e	know	4r	.	.	.	.
.	.	8d	this	.	.	.	.	.
.	.	8d	much	8A	true	.	.	.
.	.	8e	is	8G	_	.	.	.
=134	=134	=134	=134	=134	=134	=134	=134	=134
1GM	G:maj	8.d	true	8r	.	.	326.398	newline
.	.	.	.	8D 8d	This	.	.	.
.	.	16c	_	.	.	.	.	.
.	.	8B	_	8D 8d	much	.	.	.
.	.	2r	.	16E 16e	is	.	.	.
.	.	.	.	16D 16d	a'	.	.	.
.	.	.	.	8G 8g	true	.	.	.
.	.	.	.	16A# 16a#	_	.	.	.
.	.	.	.	16B 16b	_	.	.	.
.	.	.	.	4r	.	.	.	.
.	.	16e	Ha	.	.	.	.	.
.	.	[16f#	_	.	.	.	.	.
=135	=135	=135	=135	=135	=135	=135	=135	=135
1Emm	E:min9	2f#]	_	8r	.	.	.	.
.	.	.	.	8D 8d	This	.	.	.
.	.	.	.	8D 8d	much	.	.	.
.	.	.	.	16E 16e	is	.	.	.
.	.	.	.	16D 16d	a'	.	.	.
.	.	2r	.	8G 8g	true	.	.	.
.	.	.	.	16A# 16a#	_	.	.	.
.	.	.	.	16B 16b	_	.	.	.
.	.	.	.	8r	.	.	.	.
.	.	.	.	8G 8g	hoo!	.	.	.
=136	=136	=136	=136	=136	=136	=136	=136	=136
1CMM	C:maj9	1r	.	1r	.	.	.	.
=137	=137	=137	=137	=137	=137	=137	=137	=137
1Bmm	B:min7	1r	.	1r	.	.	.	.
=138	=138	=138	=138	=138	=138	=138	=138	=138
1GM	G:maj	1r	.	1r	.	.	.	.
1r;	1r	r;	.	r;	.	.	337.456	.
1r;	1r	r;	.	r;	.	.	343.118	.
*-	*-	*-	*-	*-	*-	*-	*-	*-
!!!BillboardChartDate: 1983/08/20
!!!BillboardPeak: 4
!!!BillboardWeeksOnChart: 18
!!!COC: Spandau Ballet
!!!ENC: Nathaniel Condit-Schultz
!!!EST: Awating manual error checking and editing.
!!!OTL: True
!!!RDF**chordsym: original McGill chord annotation + (implied pitch class set, with bass pitch in first position)
!!!RDF**harmony: **recip + pitch class of root + harmonic quality
!!!RDF**leadinstrument: original McGill primary instrumentation annotation
!!!RDF**phrase: newline = linebreak in original McGill transcription
!!!RDF**timestamp: McGill audio timestamp in seconds
!!!RDT: 2017/01/12/
!!!SampleActualRank: 42
!!!SampleID#: 0091
!!!SampleTargetRank: 41
!!!MBID: 44d7796e-ab53-4304-b9c5-681f05d9baa9
